X: 11113
Q: "Moderate."
M: 2/4
L: 1/16
K: Eb
(E3G) |\
E4 E4 | (E2F2)(G2A2) | (G4 F4) | z4 (E2G2) |\
(d2f2)(d2B2) | (d2c2)(B2=A2) | B4 z2 |]
(de) |\
f6 e2 | (e2d2)(c2B2) | a2(fg) (bagf) | g6 B2 |\
(cBcd) (edef) | (e2f2) (e2G2) | (G4 F4 ) | z4 (E3G) |\
(cBcd) (ec)(BA) | G4 F2EF | E4 z2 |]


